X: 39421
T: Tara From Macclesfield
R: jig
M: 6/8
K: Gmajor
|:DGA BAG|EAB cBA|DGA BAG|F3 AFD|
DGA BAG|EAB cBA|BdB cAF|AGF G3:|
|:DBD DBD|EcE EcE|DBD DBD|ABG FED|
DBD DBD|EcE EcE|BdB cAF|AGF G3:|

